Papirus/24x24/panel/scudcloud-attention.svg

<?xml version="1.0" encoding="UTF-8" standalone="no"?>
<svg xmlns:dc="http://purl.org/dc/elements/1.1/" xmlns:cc="http://creativecommons.org/ns#" xmlns:rdf="http://www.w3.org/1999/02/22-rdf-syntax-ns#" xmlns:svg="http://www.w3.org/2000/svg" xmlns="http://www.w3.org/2000/svg" id="svg2" viewBox="0 0 24 24" version="1.1" width="24" height="24">
    <metadata id="metadata18">
        <rdf:RDF>
            <cc:Work rdf:about="">
                <dc:format>
                    image/svg+xml
                </dc:format>
                <dc:type rdf:resource="http://purl.org/dc/dcmitype/StillImage"/>
                <dc:title/>
            </cc:Work>
        </rdf:RDF>
    </metadata>
    <g transform="translate(1,0.99938476)" id="g4135">
        <path style="color:#000000;text-indent:0;text-decoration:none;text-decoration-line:none;text-decoration-style:solid;text-decoration-color:#000000;text-transform:none;block-progression:tb;white-space:normal;opacity:1;isolation:auto;mix-blend-mode:normal;solid-color:#000000;fill:#ffffff;fill-opacity:1;color-rendering:auto;image-rendering:auto;shape-rendering:auto" d="M 10.5,3 C 7.5352,3 5.1319563,5.385825 5.0351562,8.328125 3.2736563,8.951425 2.0026,10.57 2,12.5 c 0,2.104 1.4964314,3.804063 3.4570312,4.289062 -0.0776,0.609001 -0.1309126,1.217032 -0.3828124,1.832032 A 1.0001,1.0001 0 0 0 6.234375,19.972656 C 8.343975,19.462656 10.018047,18.385 11.373047,17 L 15,17 c 2.75,0 5,-2.25 5,-5 0,-1.737 -0.925062,-3.2172906 -2.289062,-4.0878906 A 3,3 0 0 1 17,8 3,3 0 0 1 14,5 3,3 0 0 1 14.060547,4.4003906 C 13.110547,3.5375906 11.876953,3.0016 10.501953,3 A 1.0001,1.0001 0 0 0 10.5,3 Z m 1.5,9 3,0 c 0.554,0 1,0.446 1,1 0,0.554 -0.446,1 -1,1 l -3,0 c -0.554,0 -1,-0.446 -1,-1 0,-0.554 0.446,-1 1,-1 z" id="path4139"/>
        <circle style="fill:none" id="circle10" r="3" cy="4.9995027" cx="17"/>
        <path id="path12" d="m 19,4.9994782 a 2,2 0 0 1 -4,0 2,2 0 1 1 4,0 z" style="color:#000000;clip-rule:evenodd;fill:#5294e2;fill-opacity:1;image-rendering:optimizeQuality;shape-rendering:geometricPrecision"/>
    </g>
</svg>

<?xml version="1.0" encoding="UTF-8" standalone="no"?>
<svg id="svg2" xmlns:rdf="http://www.w3.org/1999/02/22-rdf-syntax-ns#" xmlns="http://www.w3.org/2000/svg" viewBox="0 0 24 24" width="24" version="1.1" xmlns:cc="http://creativecommons.org/ns#" height="24" xmlns:dc="http://purl.org/dc/elements/1.1/">
 <metadata id="metadata18">
  <rdf:RDF>
   <cc:Work rdf:about="">
    <dc:format>image/svg+xml</dc:format>
    <dc:type rdf:resource="http://purl.org/dc/dcmitype/StillImage"/>
    <dc:title/>
   </cc:Work>
  </rdf:RDF>
 </metadata>
 <g id="g4135" transform="translate(1 .99938)">
  <path id="path4139" style="color-rendering:auto;text-decoration-color:#000000;color:#000000;isolation:auto;mix-blend-mode:normal;shape-rendering:auto;solid-color:#000000;block-progression:tb;text-decoration-line:none;image-rendering:auto;white-space:normal;text-indent:0;text-transform:none;text-decoration-style:solid" d="m10.5 3c-2.9648 0-5.368 2.3858-5.4648 5.3281-1.7615 0.6233-3.0326 2.2419-3.0352 4.1719 0 2.104 1.4964 3.8041 3.457 4.2891-0.0776 0.609-0.13091 1.217-0.38281 1.832a1.0001 1.0001 0 0 0 1.1602 1.352c2.1096-0.51 3.7836-1.588 5.1386-2.973h3.627c2.75 0 5-2.25 5-5 0-1.737-0.92506-3.2173-2.2891-4.0879a3 3 0 0 1 -0.711 0.0879 3 3 0 0 1 -3 -3 3 3 0 0 1 0.061 -0.5996c-0.95-0.8628-2.184-1.3988-3.559-1.4004a1.0001 1.0001 0 0 0 -0.002 0zm1.5 9h3c0.554 0 1 0.446 1 1s-0.446 1-1 1h-3c-0.554 0-1-0.446-1-1s0.446-1 1-1z" fill="#fff"/>
  <circle id="circle10" cy="4.9995" cx="17" r="3" fill="none"/>
  <path id="path12" style="color:#000000;image-rendering:optimizeQuality;shape-rendering:geometricPrecision" d="m19 4.9995a2 2 0 0 1 -4 0 2 2 0 1 1 4 0z" clip-rule="evenodd" fill="#5294e2"/>
 </g>
</svg>
